img/i-indigo.svg

<svg xmlns="http://www.w3.org/2000/svg" viewBox="0 0 256 256" enable-background="new 0 0 256 256"><path fill="#2E3192" d="M255 234.3c0 11.5-9.3 20.7-20.7 20.7h-212.6c-11.4 0-20.7-9.3-20.7-20.7v-212.6c0-11.4 9.3-20.7 20.7-20.7h212.5c11.5 0 20.7 9.3 20.7 20.7v212.6z"/><path fill="#fff" d="M143 220.1h-30v-30h30v30zm0-41.4h-30v-142.8h30v142.8z"/></svg>

<?xml version="1.0" encoding="utf-8"?>
<!-- Generator: Adobe Illustrator 17.1.0, SVG Export Plug-In . SVG Version: 6.00 Build 0)  -->
<!DOCTYPE svg PUBLIC "-//W3C//DTD SVG 1.1//EN" "http://www.w3.org/Graphics/SVG/1.1/DTD/svg11.dtd">
<svg version="1.1" id="Layer_1" xmlns="http://www.w3.org/2000/svg" xmlns:xlink="http://www.w3.org/1999/xlink" x="0px" y="0px"
	 viewBox="0 0 256 256" enable-background="new 0 0 256 256" xml:space="preserve">
<path fill="#2E3192" d="M255,234.3c0,11.5-9.3,20.7-20.7,20.7H21.7C10.3,255,1,245.7,1,234.3V21.7C1,10.3,10.3,1,21.7,1h212.5
	c11.5,0,20.7,9.3,20.7,20.7V234.3z"/>
<path fill="#FFFFFF" d="M143,220.1h-30v-30h30V220.1z M143,178.7h-30V35.9h30V178.7z"/>
<g>
</g>
<g>
</g>
<g>
</g>
<g>
</g>
<g>
</g>
<g>
</g>
<g>
</g>
<g>
</g>
<g>
</g>
<g>
</g>
<g>
</g>
<g>
</g>
<g>
</g>
<g>
</g>
<g>
</g>
</svg>
